X:1
T:Vals Akabat, andrastämma första reprisen
R:Vals
Z:Anton Teljebäck
M:3/4
L:1/8
K:D
|AA |A2 A(A A)A | AG F2 AA | A2 A(A A)A | AG F2 AA |A2 A(A A)A | AG F2 AA | A2 A(B B)B | ^c2 c(d d)d |
|A2 A(A A)A | AG F2 AA | A2 A(A A)A | AG F2 AA |A2 A(A A)A | AG F2 AA | A2 A(B B)c | d2 d2

